dist/svgs/crypto-icons/icons/tx.svg

<?xml version="1.0" encoding="UTF-8" standalone="yes"?>
<svg xmlns="http://www.w3.org/2000/svg" xmlns:xlink="http://www.w3.org/1999/xlink" width="512px" height="512px" viewBox="0 0 384 384" version="1.1">
  <g id="surface1">
    <path style=" stroke:none;fill-rule:nonzero;fill:rgb(0%,0%,0%);fill-opacity:1;" d="M 191.886719 0 C 86.078125 0 0 86.078125 0 191.886719 C 0 297.691406 86.082031 383.773438 191.886719 383.773438 C 297.691406 383.773438 383.769531 297.691406 383.769531 191.886719 C 383.769531 86.078125 297.691406 0 191.886719 0 Z M 191.886719 371.539062 C 92.828125 371.539062 12.234375 290.945312 12.234375 191.886719 C 12.234375 92.824219 92.828125 12.234375 191.886719 12.234375 C 290.945312 12.234375 371.535156 92.824219 371.535156 191.886719 C 371.535156 290.945312 290.945312 371.539062 191.886719 371.539062 Z M 191.886719 371.539062 "/>
    <path style=" stroke:none;fill-rule:nonzero;fill:rgb(0%,0%,0%);fill-opacity:1;" d="M 230.730469 85.152344 C 230.730469 63.699219 213.339844 46.308594 191.886719 46.308594 C 170.433594 46.308594 153.042969 63.699219 153.042969 85.152344 C 153.042969 106.605469 170.433594 123.996094 191.886719 123.996094 C 213.339844 123.996094 230.730469 106.605469 230.730469 85.152344 Z M 230.730469 85.152344 "/>
    <path style=" stroke:none;fill-rule:nonzero;fill:rgb(0%,0%,0%);fill-opacity:1;" d="M 130.328125 234.9375 C 130.328125 213.484375 112.9375 196.09375 91.484375 196.09375 C 70.03125 196.09375 52.640625 213.484375 52.640625 234.9375 C 52.640625 256.390625 70.03125 273.78125 91.484375 273.78125 C 112.9375 273.78125 130.328125 256.390625 130.328125 234.9375 Z M 130.328125 234.9375 "/>
    <path style=" stroke:none;fill-rule:nonzero;fill:rgb(0%,0%,0%);fill-opacity:1;" d="M 98.582031 182.136719 C 101.753906 151.566406 119.679688 125.328125 145.082031 110.640625 C 140.300781 101.875 138.089844 91.941406 138.703125 81.976562 C 99.546875 101.003906 72.019531 140.347656 69.914062 186.214844 C 76.707031 183.199219 84.054688 181.644531 91.488281 181.652344 C 93.894531 181.652344 96.261719 181.828125 98.582031 182.136719 Z M 285.160156 181.925781 C 286.953125 181.742188 288.757812 181.652344 290.5625 181.652344 C 298.925781 181.652344 306.835938 183.582031 313.875 187.011719 C 312.050781 140.804688 284.449219 101.113281 245.066406 81.976562 C 245.679688 91.941406 243.46875 101.875 238.6875 110.640625 C 264.03125 125.296875 281.929688 151.445312 285.160156 181.925781 Z M 248.011719 267.003906 C 232.351562 278.738281 212.917969 285.695312 191.886719 285.695312 C 170.355469 285.695312 150.511719 278.386719 134.664062 266.140625 C 128.902344 274.105469 121.058594 280.328125 111.996094 284.121094 C 133.429688 302.707031 161.355469 314 191.886719 314 C 222.164062 314 249.878906 302.898438 271.246094 284.589844 C 262.019531 280.992188 253.980469 274.902344 248.011719 267.003906 Z M 248.011719 267.003906 "/>
    <path style=" stroke:none;fill-rule:nonzero;fill:rgb(0%,0%,0%);fill-opacity:1;" d="M 329.40625 234.933594 C 329.40625 213.480469 312.015625 196.089844 290.5625 196.089844 C 269.109375 196.089844 251.71875 213.480469 251.71875 234.933594 C 251.71875 256.386719 269.109375 273.777344 290.5625 273.777344 C 312.015625 273.777344 329.40625 256.386719 329.40625 234.933594 Z M 329.40625 234.933594 "/>
    <path style=" stroke:none;fill-rule:nonzero;fill:rgb(0%,0%,0%);fill-opacity:1;" d="M 191.886719 25.839844 C 100.328125 25.839844 25.839844 100.328125 25.839844 191.886719 C 25.839844 283.445312 100.328125 357.929688 191.886719 357.929688 C 283.441406 357.929688 357.929688 283.445312 357.929688 191.886719 C 357.929688 100.328125 283.4375 25.839844 191.886719 25.839844 Z M 290.5625 288.21875 C 288.949219 288.21875 287.355469 288.132812 285.777344 287.996094 C 261.527344 311.691406 228.382812 326.320312 191.886719 326.320312 C 155.300781 326.320312 122.085938 311.621094 97.824219 287.828125 C 95.722656 288.085938 93.605469 288.214844 91.488281 288.21875 C 62.058594 288.21875 38.199219 264.359375 38.199219 234.933594 C 38.199219 218.433594 45.703125 203.6875 57.476562 193.917969 C 57.46875 193.238281 57.453125 192.5625 57.453125 191.886719 C 57.453125 135.484375 92.371094 87.089844 141.71875 67.167969 C 149.097656 46.589844 168.769531 31.871094 191.886719 31.871094 C 214.996094 31.871094 234.667969 46.589844 242.046875 67.167969 C 291.398438 87.089844 326.316406 135.484375 326.316406 191.886719 C 326.316406 193.058594 326.300781 194.222656 326.269531 195.386719 C 337.0625 205.136719 343.847656 219.242188 343.847656 234.933594 C 343.847656 264.363281 319.992188 288.21875 290.5625 288.21875 Z M 290.5625 288.21875 "/>
  </g>
</svg>

<svg xmlns="http://www.w3.org/2000/svg" viewBox="0 0 384 384"><path d="M191.887 0C86.078 0 0 86.078 0 191.887 0 297.69 86.082 383.773 191.887 383.773c105.804 0 191.883-86.082 191.883-191.886C383.77 86.078 297.69 0 191.887 0zm0 371.54c-99.059 0-179.653-80.595-179.653-179.653 0-99.063 80.594-179.653 179.653-179.653 99.058 0 179.648 80.59 179.648 179.653 0 99.058-80.59 179.652-179.648 179.652zm0 0"/><path d="M230.73 85.152c0-21.453-17.39-38.843-38.843-38.843-21.453 0-38.844 17.39-38.844 38.843 0 21.453 17.39 38.844 38.844 38.844 21.453 0 38.843-17.39 38.843-38.844zM130.328 234.938c0-21.454-17.39-38.844-38.844-38.844-21.453 0-38.843 17.39-38.843 38.844 0 21.453 17.39 38.843 38.843 38.843 21.454 0 38.844-17.39 38.844-38.844zm-31.746-52.801c3.172-30.57 21.098-56.809 46.5-71.496a53.05 53.05 0 01-6.379-28.664c-39.156 19.027-66.683 58.37-68.789 104.238a53.026 53.026 0 0121.574-4.563c2.407 0 4.774.176 7.094.485zm186.578-.211a53.056 53.056 0 015.402-.274 53.08 53.08 0 0123.313 5.36c-1.824-46.207-29.426-85.899-68.809-105.035a53.05 53.05 0 01-6.379 28.664c25.344 14.656 43.243 40.804 46.473 71.285zm-37.148 85.078c-15.66 11.734-35.094 18.691-56.125 18.691-21.532 0-41.375-7.308-57.223-19.554a53.452 53.452 0 01-22.668 17.98C133.43 302.707 161.356 314 191.886 314c30.278 0 57.993-11.102 79.36-29.41a53.47 53.47 0 01-23.234-17.586zm81.394-32.07c0-21.454-17.39-38.844-38.844-38.844-21.453 0-38.843 17.39-38.843 38.844 0 21.453 17.39 38.843 38.844 38.843 21.453 0 38.843-17.39 38.843-38.843zm0 0"/><path d="M191.887 25.84c-91.559 0-166.047 74.488-166.047 166.047 0 91.558 74.488 166.043 166.047 166.043 91.554 0 166.043-74.485 166.043-166.043 0-91.559-74.493-166.047-166.043-166.047zm98.675 262.379c-1.613 0-3.207-.086-4.785-.223-24.25 23.695-57.394 38.324-93.89 38.324-36.586 0-69.801-14.699-94.063-38.492a52.85 52.85 0 01-6.336.39c-29.43 0-53.289-23.859-53.289-53.284 0-16.5 7.504-31.246 19.278-41.016-.008-.68-.024-1.356-.024-2.031 0-56.403 34.918-104.797 84.266-124.719 7.379-20.578 27.05-35.297 50.168-35.297 23.11 0 42.781 14.719 50.16 35.297 49.351 19.922 84.27 68.316 84.27 124.719 0 1.172-.016 2.336-.047 3.5 10.793 9.75 17.578 23.855 17.578 39.547 0 29.43-23.856 53.285-53.286 53.285zm0 0"/></svg>
